X:1
T:We Loop In the Purple Twilight
M:4/4
L:1/4
K:C
 G/2| E2 E3/2 E/2| E3 E| F F3-| F2 z E| D2 D3/2 D/2| G G2 F| E4-| E2 z G|\
 G G3| c3 B| B A3-| A z A2| G2 B3/2 A/2| G2 F3/2 D/2| C4-| C2 z||
